X: 161860
T: Pivot [The]
S: "Passing Time" (Jim & Mary Coogan & friends)
N: Joe Derrane setting
L: 1/8
M: 4/4
Q: 300
R: hornpipe
K: D
A | dcdf edcB | A^GAB A=GFE | DFAF DBAF | A2 E2 E3 A |
dcdf edcB | A^GAB A=GFE | DFAF GBAG | F2 D2 D3 :|
A | edef gecA | dcdf a2 fa | gB (3BBB fA (3AAA | edef e2 cd |
ef (3gfe cABc | dcdf a2 fa | gBeg fAdf | edef d3 :|
